X: 3392
T: Bergs In The Bay
R: polka
M: 2/4
K: Dmajor
|:EF GG|AB/c/ dB|AF EG|GF/G/ A2|
EF GG|AB/c/ de|d>e fe|dc d2:|
|:AB/c/ d>B|Bd ef/e/|dB AB|de f2|
AB/c/ d>B|Bd ef|e>f ga|fe d2:|

